Newaita-dark/actions/24/format-remove-node.svg

<svg height="24" viewBox="0 0 24 24" width="24" xmlns="http://www.w3.org/2000/svg"><g fill="#e0e0e0"><path d="m13.890625 6.140625h7.941406v1.984375h-7.941406zm0 0"/><path d="m9.425781 3.660156c-.546875 0-.992187.441406-.992187.992188v4.960937c0 .550781.445312.992188.992187.992188h4.960938c.550781 0 .992187-.441407.992187-.992188v-4.960937c0-.550782-.441406-.992188-.992187-.992188zm1.488281 1.984375h1.984376c.277343 0 .496093.222657.496093.496094v1.984375c0 .277344-.21875.496094-.496093.496094h-1.984376c-.273437 0-.496093-.21875-.496093-.496094v-1.984375c0-.273437.222656-.496094.496093-.496094zm0 0"/><path d="m1.984375 6.140625h7.9375v1.984375h-7.9375zm0 0"/></g><path d="m15.070312 19.925781-.703124.699219c-.195313.195312-.507813.195312-.703126 0l-4.910156-4.910156c-.195312-.195313-.195312-.507813 0-.703125l.703125-.699219c.191407-.195312.507813-.195312.699219 0l4.914062 4.910156c.191407.195313.191407.507813 0 .703125zm0 0" fill="#f44336"/><path d="m9.457031 20.625-.703125-.699219c-.195312-.195312-.195312-.507812 0-.703125l4.910156-4.910156c.195313-.195312.507813-.195312.703126 0l.703124.699219c.191407.195312.191407.507812 0 .703125l-4.914062 4.910156c-.191406.195312-.507812.195312-.699219 0zm0 0" fill="#f44336"/></svg>

<svg xmlns="http://www.w3.org/2000/svg" xmlns:xlink="http://www.w3.org/1999/xlink" width="24px" height="24px" viewBox="0 0 24 24" version="1.1">
<g id="surface1">
     <defs>
  <style id="current-color-scheme" type="text/css">
   .ColorScheme-Text { color:#eeeeee; } .ColorScheme-Highlight { color:#424242; }
  </style>
 </defs>
<path style="fill:currentColor" class="ColorScheme-Text" d="M 13.890625 6.140625 L 21.832031 6.140625 L 21.832031 8.125 L 13.890625 8.125 Z M 13.890625 6.140625 "/>
     <defs>
  <style id="current-color-scheme" type="text/css">
   .ColorScheme-Text { color:#eeeeee; } .ColorScheme-Highlight { color:#424242; }
  </style>
 </defs>
<path style="fill:currentColor" class="ColorScheme-Text" d="M 9.425781 3.660156 C 8.878906 3.660156 8.433594 4.101562 8.433594 4.652344 L 8.433594 9.613281 C 8.433594 10.164062 8.878906 10.605469 9.425781 10.605469 L 14.386719 10.605469 C 14.9375 10.605469 15.378906 10.164062 15.378906 9.613281 L 15.378906 4.652344 C 15.378906 4.101562 14.9375 3.660156 14.386719 3.660156 Z M 10.914062 5.644531 L 12.898438 5.644531 C 13.175781 5.644531 13.394531 5.867188 13.394531 6.140625 L 13.394531 8.125 C 13.394531 8.402344 13.175781 8.621094 12.898438 8.621094 L 10.914062 8.621094 C 10.640625 8.621094 10.417969 8.402344 10.417969 8.125 L 10.417969 6.140625 C 10.417969 5.867188 10.640625 5.644531 10.914062 5.644531 Z M 10.914062 5.644531 "/>
     <defs>
  <style id="current-color-scheme" type="text/css">
   .ColorScheme-Text { color:#eeeeee; } .ColorScheme-Highlight { color:#424242; }
  </style>
 </defs>
<path style="fill:currentColor" class="ColorScheme-Text" d="M 1.984375 6.140625 L 9.921875 6.140625 L 9.921875 8.125 L 1.984375 8.125 Z M 1.984375 6.140625 "/>
<path style=" stroke:none;fill-rule:nonzero;fill:rgb(95.686275%,26.274511%,21.176471%);fill-opacity:1;" d="M 15.070312 19.925781 L 14.367188 20.625 C 14.171875 20.820312 13.859375 20.820312 13.664062 20.625 L 8.753906 15.714844 C 8.558594 15.519531 8.558594 15.207031 8.753906 15.011719 L 9.457031 14.3125 C 9.648438 14.117188 9.964844 14.117188 10.15625 14.3125 L 15.070312 19.222656 C 15.261719 19.417969 15.261719 19.730469 15.070312 19.925781 Z M 15.070312 19.925781 "/>
<path style=" stroke:none;fill-rule:nonzero;fill:rgb(95.686275%,26.274511%,21.176471%);fill-opacity:1;" d="M 9.457031 20.625 L 8.753906 19.925781 C 8.558594 19.730469 8.558594 19.417969 8.753906 19.222656 L 13.664062 14.3125 C 13.859375 14.117188 14.171875 14.117188 14.367188 14.3125 L 15.070312 15.011719 C 15.261719 15.207031 15.261719 15.519531 15.070312 15.714844 L 10.15625 20.625 C 9.964844 20.820312 9.648438 20.820312 9.457031 20.625 Z M 9.457031 20.625 "/>
</g>
</svg>
